frontend/svgs/tip_callout4.svg

<svg xmlns="http://www.w3.org/2000/svg" preserveAspectRatio="none" viewBox="-0.5 -0.5 91 62"><path class="svg_main_path" d="M12.05 30.57c-3.32 1.21-7.04.13-9.15-2.64a7.697 7.697 0 010-9.37c2.11-2.77 5.83-3.85 9.15-2.64-.03-4.89 3.03-9.28 7.69-11.02 4.65-1.74 9.92-.47 13.21 3.2 2.12-5.2 7.24-8.6 12.94-8.6 5.7 0 10.83 3.4 12.94 8.6 3.39-2.99 8.21-3.84 12.44-2.18 4.23 1.66 7.12 5.54 7.47 10 3.31-1.21 7.04-.13 9.15 2.64a7.726 7.726 0 010 9.37c-2.11 2.77-5.84 3.85-9.15 2.64-.36 4.72-3.57 8.76-8.13 10.25-4.57 1.5-9.6.15-12.77-3.4-2.52 4.11-7.06 6.63-11.95 6.63s-9.42-2.52-11.94-6.63c-2.41 4.74-9.26 7.06-15.31 5.17-6.05-1.88-9-7.27-6.59-12.02z" fill="#f7f7c6" stroke="#000" stroke-linejoin="round" stroke-miterlimit="10" pointer-events="all"/><ellipse class="svg_main_path" cx="15.03" cy="47.19" rx="5.973" ry="2.638" fill="#f7f7c6" stroke="#000" pointer-events="all"/><ellipse class="svg_main_path" cx="8.06" cy="53.54" rx="3.783" ry="1.759" fill="#f7f7c6" stroke="#000" pointer-events="all"/><ellipse class="svg_main_path" cx="2.39" cy="58.23" rx="2.389" ry="1.27" fill="#f7f7c6" stroke="#000" pointer-events="all"/></svg>

<svg xmlns="http://www.w3.org/2000/svg" xmlns:xlink="http://www.w3.org/1999/xlink" version="1.1" preserveAspectRatio="none" viewBox="-0.5 -0.5 91 62"><defs/><g><path class="svg_main_path" d="M 12.05 30.57 C 8.73 31.78 5.01 30.7 2.9 27.93 C 0.78 25.15 0.78 21.34 2.9 18.56 C 5.01 15.79 8.73 14.71 12.05 15.92 C 12.02 11.03 15.08 6.64 19.74 4.9 C 24.39 3.16 29.66 4.43 32.95 8.1 C 35.07 2.9 40.19 -0.5 45.89 -0.5 C 51.59 -0.5 56.72 2.9 58.83 8.1 C 62.22 5.11 67.04 4.26 71.27 5.92 C 75.5 7.58 78.39 11.46 78.74 15.92 C 82.05 14.71 85.78 15.79 87.89 18.56 C 90 21.34 90 25.15 87.89 27.93 C 85.78 30.7 82.05 31.78 78.74 30.57 C 78.38 35.29 75.17 39.33 70.61 40.82 C 66.04 42.32 61.01 40.97 57.84 37.42 C 55.32 41.53 50.78 44.05 45.89 44.05 C 41 44.05 36.47 41.53 33.95 37.42 C 31.54 42.16 24.69 44.48 18.64 42.59 C 12.59 40.71 9.64 35.32 12.05 30.57 Z" fill="#f7f7c6" stroke="#000000" stroke-linejoin="round" stroke-miterlimit="10" pointer-events="all"/><rect x="0" y="-0.5" width="0" height="0" fill="none" stroke="#000000" pointer-events="all"/><ellipse class="svg_main_path" cx="15.03" cy="47.19" rx="5.972790620506581" ry="2.638436482084691" fill="#f7f7c6" stroke="#000000" pointer-events="all"/><ellipse class="svg_main_path" cx="8.06" cy="53.54" rx="3.782767392987501" ry="1.7589576547231272" fill="#f7f7c6" stroke="#000000" pointer-events="all"/><ellipse class="svg_main_path" cx="2.39" cy="58.23" rx="2.3891162482026322" ry="1.2703583061889252" fill="#f7f7c6" stroke="#000000" pointer-events="all"/></g></svg>
